Newaita-dark/apps/22/preferences-system-brightness-lock.svg

<svg height="22" viewBox="0 0 22 22" width="22" xmlns="http://www.w3.org/2000/svg" xmlns:xlink="http://www.w3.org/1999/xlink"><linearGradient id="a"><stop offset="0" stop-opacity=".313726"/><stop offset=".222222" stop-opacity=".27451"/><stop offset="1" stop-opacity="0"/></linearGradient><radialGradient id="b" cx="450.908936" cy="189.579361" gradientTransform="matrix(.00000012 -.0537161 -.0966889 -.00000007 29.245279 43.721789)" gradientUnits="userSpaceOnUse" r="21.166656" xlink:href="#a"/><radialGradient id="c" cx="450.908936" cy="189.579361" gradientTransform="matrix(-.00000012 .0537161 .0966889 .00000007 -7.415068 -5.175144)" gradientUnits="userSpaceOnUse" r="21.166656" xlink:href="#a"/><radialGradient id="d" cx="450.908936" cy="189.579361" gradientTransform="matrix(-.00000012 -.0537161 .0966889 -.00000007 -7.415068 43.721789)" gradientUnits="userSpaceOnUse" r="21.166656" xlink:href="#a"/><radialGradient id="e" cx="450.908936" cy="189.579361" gradientTransform="matrix(.00000012 .0537161 -.0966889 .00000007 29.245278 -5.175144)" gradientUnits="userSpaceOnUse" r="21.166656" xlink:href="#a"/><linearGradient id="f" gradientTransform="matrix(.00131215 0 0 .0429729 10.580083 9.239164)" gradientUnits="userSpaceOnUse" x1="255.323059" x2="255.323044" y1="233.5" y2="254.666656"><stop offset="0" stop-opacity=".27451"/><stop offset="1" stop-opacity="0"/></linearGradient><linearGradient id="g"><stop offset="0" stop-color="#78909c"/><stop offset="1" stop-color="#90a4ae"/></linearGradient><linearGradient id="h" gradientUnits="userSpaceOnUse" x1="10.915104" x2="10.915104" xlink:href="#g" y1="19.27332401286" y2="1.99107567177"/><linearGradient id="i" gradientUnits="userSpaceOnUse" x1="12.73430315838" x2="12.73430315838" xlink:href="#g" y1="16.99935229581" y2="4.265049825"/><linearGradient id="j" gradientUnits="userSpaceOnUse" x1="400" x2="960" y1="935.117188" y2="935.117188"><stop offset="0" stop-color="#eee"/><stop offset="1" stop-color="#e0e0e0"/></linearGradient><path d="m11.140625 19.273438h1.820313v-.910157h-1.820313zm0 0" fill="url(#b)"/><path d="m10.6875 19.273438h-1.820312v.910156h1.820312zm0 0" fill="url(#c)"/><path d="m10.6875 19.273438h-1.820312v-.910157h1.820312zm0 0" fill="url(#d)"/><path d="m11.140625 19.273438h1.820313v.910156h-1.820313zm0 0" fill="url(#e)"/><path d="m10.6875 19.046875h.453125v1.136719h-.453125zm0 0" fill="url(#f)"/><path d="m10.914062 2.003906c-.230468 0-.464843.089844-.640624.265625l-1.996094 1.996094h-2.820313c-.503906 0-.910156.40625-.910156.910156v2.820313l-1.992187 1.992187c-.355469.355469-.355469.929688 0 1.285157l1.992187 1.996093v2.820313c0 .503906.40625.910156.910156.910156h2.820313l1.996094 1.992188c.355468.359374.929687.359374 1.285156 0l1.992187-1.992188h2.820313c.503906 0 .910156-.40625.910156-.910156v-2.820313l1.996094-1.996093c.355468-.355469.355468-.929688 0-1.285157l-1.996094-1.992187v-2.820313c0-.503906-.40625-.910156-.910156-.910156h-2.820313l-1.992187-1.996094c-.179688-.175781-.410156-.265625-.644532-.265625zm0 0" fill="url(#h)"/><path d="m10.914062 4.265625c3.515626 0 6.367188 2.851563 6.367188 6.367187 0 3.515626-2.851562 6.367188-6.367188 6.367188-3.515624 0-6.367187-2.851562-6.367187-6.367188 0-3.515624 2.851563-6.367187 6.367187-6.367187zm0 0" fill="url(#i)"/><path d="m959.908384 375.168202c-310.235244 0-560.003818 249.768573-560.003818 560.003817 0 310.235243 249.768574 560.003817 560.003818 560.003817zm0 0" fill="url(#j)" stroke="#212121" stroke-linecap="round" stroke-linejoin="round" stroke-width="11.338583" transform="scale(.0113699)"/><path d="m10.914062 2.003906c-.230468 0-.464843.089844-.640624.265625l-1.996094 1.996094h-2.820313c-.503906 0-.910156.40625-.910156.910156v.214844c0-.503906.40625-.910156.910156-.910156h2.820313l1.996094-1.996094c.175781-.175781.410156-.265625.640624-.265625.234376 0 .464844.089844.644532.265625l1.992187 1.996094h2.820313c.503906 0 .910156.40625.910156.910156v-.214844c0-.503906-.40625-.910156-.910156-.910156h-2.820313l-1.992187-1.996094c-.179688-.175781-.410156-.265625-.644532-.265625zm-6.367187 5.992188-1.992187 1.992187c-.207032.207031-.292969.484375-.261719.75.023437-.195312.109375-.382812.261719-.535156l1.992187-1.992187zm12.734375 0v.214844l1.996094 1.992187c.148437.152344.238281.339844.257812.535156.035156-.265625-.054687-.542969-.257812-.75zm0 0" fill="#fff" fill-opacity=".392157"/><path d="m10.914062 19.261719c-.230468 0-.464843-.089844-.640624-.269531l-1.996094-1.992188h-2.820313c-.503906 0-.910156-.40625-.910156-.910156v-.214844c0 .503906.40625.910156.910156.910156h2.820313l1.996094 1.992188c.175781.179687.410156.269531.640624.269531.234376 0 .464844-.089844.644532-.269531l1.992187-1.992188h2.820313c.503906 0 .910156-.40625.910156-.910156v.214844c0 .503906-.40625.910156-.910156.910156h-2.820313l-1.992187 1.992188c-.179688.179687-.410156.269531-.644532.269531zm-6.367187-5.992188-1.992187-1.996093c-.207032-.203126-.292969-.480469-.261719-.75.023437.195312.109375.386718.261719.539062l1.992187 1.992188zm12.734375 0v-.214843l1.996094-1.992188c.148437-.152344.238281-.34375.257812-.539062.035156.269531-.054687.546874-.257812.75zm0 0" fill-opacity=".235294"/><path d="m10.914062 1.9375c-.246093 0-.496093.097656-.6875.289062l-1.976562 1.972657h-2.792969c-.539062 0-.972656.4375-.972656.976562v2.792969l-1.976563 1.976562c-.378906.378907-.378906.996094 0 1.375l1.976563 1.976563v2.792969c0 .539062.433594.972656.972656.972656h2.792969l1.976562 1.976562c.378907.378907.996094.378907 1.378907 0l1.972656-1.976562h2.792969c.539062 0 .976562-.433594.976562-.972656v-2.792969l1.972656-1.976563c.382813-.378906.382813-.996093 0-1.375l-1.972656-1.976562v-2.792969c0-.539062-.4375-.976562-.976562-.976562h-2.792969l-1.972656-1.972657c-.191407-.191406-.441407-.289062-.691407-.289062zm0 .128906c.21875 0 .433594.085938.597657.25l1.996093 1.996094c.011719.011719.027344.015625.042969.015625h2.820313c.472656 0 .847656.378906.847656.847656v2.820313c0 .015625.003906.03125.019531.042968l1.992188 1.996094c.332031.332032.332031.863282 0 1.195313l-1.992188 1.992187c-.015625.011719-.019531.03125-.019531.046875v2.820313c0 .46875-.375.84375-.847656.84375h-2.820313c-.015625 0-.03125.007812-.042969.019531l-1.996093 1.996094c-.332031.332031-.863281.332031-1.195313 0l-1.992187-1.996094c-.011719-.011719-.03125-.019531-.046875-.019531h-2.820313c-.46875 0-.84375-.375-.84375-.84375v-2.820313c0-.015625-.007812-.035156-.019531-.046875l-1.996094-1.992187c-.332031-.332031-.332031-.863281 0-1.195313l1.996094-1.996094c.011719-.011718.019531-.027343.019531-.042968v-2.820313c0-.46875.375-.847656.84375-.847656h2.820313c.015625 0 .035156-.003906.046875-.015625l1.992187-1.996094c.167969-.164062.382813-.25.597656-.25zm0 0" fill="#212121" fill-opacity=".963235"/><path d="m10.914062 4.265625c-3.527343 0-6.367187 2.839844-6.367187 6.367187 0 .039063 0 .074219.003906.113282.058594-3.476563 2.875-6.253906 6.363281-6.253906 3.492188 0 6.308594 2.777343 6.367188 6.253906 0-.039063 0-.074219 0-.113282 0-3.527343-2.839844-6.367187-6.367188-6.367187zm0 0" fill="#fff" fill-opacity=".392157"/><path d="m10.914062 17.226562c-3.527343 0-6.367187-2.839843-6.367187-6.367187 0-.039063 0-.074219.003906-.113281.058594 3.472656 2.875 6.253906 6.363281 6.253906 3.492188 0 6.308594-2.78125 6.367188-6.253906v.113281c0 3.527344-2.839844 6.367187-6.367188 6.367187zm0 0" fill-opacity=".235294"/><path d="m253.975747-115.736752c81.810369 0 148.167668 66.3573 148.167668 148.167669s-66.357299 148.167669-148.167668 148.167669c-81.81037 0-148.167669-66.3573-148.167669-148.167669s66.357299-148.167669 148.167669-148.167669zm0 0" fill="none" stroke="#212121" stroke-linecap="round" stroke-linejoin="round" stroke-width="2.546624" transform="matrix(.0429729 0 0 .0429729 0 9.239163)"/></svg>

<?xml version="1.0" encoding="UTF-8"?>
<svg xmlns="http://www.w3.org/2000/svg" xmlns:xlink="http://www.w3.org/1999/xlink" width="22px" height="22px" viewBox="0 0 22 22" version="1.1">
<defs>
<radialGradient id="radial0" gradientUnits="userSpaceOnUse" cx="450.908936" cy="189.579361" fx="450.908936" fy="189.579361" r="21.166656" gradientTransform="matrix(0.000000119742,-0.0537161,-0.0966889,-0.0000000698078,29.245279,43.721789)">
<stop offset="0" style="stop-color:rgb(0%,0%,0%);stop-opacity:0.313726;"/>
<stop offset="0.222222" style="stop-color:rgb(0%,0%,0%);stop-opacity:0.27451;"/>
<stop offset="1" style="stop-color:rgb(0%,0%,0%);stop-opacity:0;"/>
</radialGradient>
<radialGradient id="radial1" gradientUnits="userSpaceOnUse" cx="450.908936" cy="189.579361" fx="450.908936" fy="189.579361" r="21.166656" gradientTransform="matrix(-0.000000119742,0.0537161,0.0966889,0.0000000698078,-7.415068,-5.175144)">
<stop offset="0" style="stop-color:rgb(0%,0%,0%);stop-opacity:0.313726;"/>
<stop offset="0.222222" style="stop-color:rgb(0%,0%,0%);stop-opacity:0.27451;"/>
<stop offset="1" style="stop-color:rgb(0%,0%,0%);stop-opacity:0;"/>
</radialGradient>
<radialGradient id="radial2" gradientUnits="userSpaceOnUse" cx="450.908936" cy="189.579361" fx="450.908936" fy="189.579361" r="21.166656" gradientTransform="matrix(-0.000000119742,-0.0537161,0.0966889,-0.0000000698078,-7.415068,43.721789)">
<stop offset="0" style="stop-color:rgb(0%,0%,0%);stop-opacity:0.313726;"/>
<stop offset="0.222222" style="stop-color:rgb(0%,0%,0%);stop-opacity:0.27451;"/>
<stop offset="1" style="stop-color:rgb(0%,0%,0%);stop-opacity:0;"/>
</radialGradient>
<radialGradient id="radial3" gradientUnits="userSpaceOnUse" cx="450.908936" cy="189.579361" fx="450.908936" fy="189.579361" r="21.166656" gradientTransform="matrix(0.000000119742,0.0537161,-0.0966889,0.0000000698078,29.245278,-5.175144)">
<stop offset="0" style="stop-color:rgb(0%,0%,0%);stop-opacity:0.313726;"/>
<stop offset="0.222222" style="stop-color:rgb(0%,0%,0%);stop-opacity:0.27451;"/>
<stop offset="1" style="stop-color:rgb(0%,0%,0%);stop-opacity:0;"/>
</radialGradient>
<linearGradient id="linear0" gradientUnits="userSpaceOnUse" x1="255.323059" y1="233.5" x2="255.323044" y2="254.666656" gradientTransform="matrix(0.00131215,0,0,0.0429729,10.580083,9.239164)">
<stop offset="0" style="stop-color:rgb(0%,0%,0%);stop-opacity:0.27451;"/>
<stop offset="1" style="stop-color:rgb(0%,0%,0%);stop-opacity:0;"/>
</linearGradient>
<linearGradient id="linear1" gradientUnits="userSpaceOnUse" x1="960" y1="1695.118164" x2="960" y2="175.118134" gradientTransform="matrix(0.0113699,0,0,0.0113699,0,0)">
<stop offset="0" style="stop-color:rgb(47.058824%,56.470591%,61.176473%);stop-opacity:1;"/>
<stop offset="1" style="stop-color:rgb(56.470591%,64.313728%,68.235296%);stop-opacity:1;"/>
</linearGradient>
<linearGradient id="linear2" gradientUnits="userSpaceOnUse" x1="296.333344" y1="180.583328" x2="296.333344" y2="-115.75" gradientTransform="matrix(0.0429729,0,0,0.0429729,0,9.239163)">
<stop offset="0" style="stop-color:rgb(47.058824%,56.470591%,61.176473%);stop-opacity:1;"/>
<stop offset="1" style="stop-color:rgb(56.470591%,64.313728%,68.235296%);stop-opacity:1;"/>
</linearGradient>
<linearGradient id="linear3" gradientUnits="userSpaceOnUse" x1="400" y1="935.117188" x2="960" y2="935.117188" >
<stop offset="0" style="stop-color:rgb(93.333334%,93.333334%,93.333334%);stop-opacity:1;"/>
<stop offset="1" style="stop-color:rgb(87.843138%,87.843138%,87.843138%);stop-opacity:1;"/>
</linearGradient>
</defs>
<g id="surface1">
<path style=" stroke:none;fill-rule:nonzero;fill:url(#radial0);" d="M 11.140625 19.273438 L 12.960938 19.273438 L 12.960938 18.363281 L 11.140625 18.363281 Z M 11.140625 19.273438 "/>
<path style=" stroke:none;fill-rule:nonzero;fill:url(#radial1);" d="M 10.6875 19.273438 L 8.867188 19.273438 L 8.867188 20.183594 L 10.6875 20.183594 Z M 10.6875 19.273438 "/>
<path style=" stroke:none;fill-rule:nonzero;fill:url(#radial2);" d="M 10.6875 19.273438 L 8.867188 19.273438 L 8.867188 18.363281 L 10.6875 18.363281 Z M 10.6875 19.273438 "/>
<path style=" stroke:none;fill-rule:nonzero;fill:url(#radial3);" d="M 11.140625 19.273438 L 12.960938 19.273438 L 12.960938 20.183594 L 11.140625 20.183594 Z M 11.140625 19.273438 "/>
<path style=" stroke:none;fill-rule:nonzero;fill:url(#linear0);" d="M 10.6875 19.046875 L 11.140625 19.046875 L 11.140625 20.183594 L 10.6875 20.183594 Z M 10.6875 19.046875 "/>
<path style=" stroke:none;fill-rule:nonzero;fill:url(#linear1);" d="M 10.914062 2.003906 C 10.683594 2.003906 10.449219 2.09375 10.273438 2.269531 L 8.277344 4.265625 L 5.457031 4.265625 C 4.953125 4.265625 4.546875 4.671875 4.546875 5.175781 L 4.546875 7.996094 L 2.554688 9.988281 C 2.199219 10.34375 2.199219 10.917969 2.554688 11.273438 L 4.546875 13.269531 L 4.546875 16.089844 C 4.546875 16.59375 4.953125 17 5.457031 17 L 8.277344 17 L 10.273438 18.992188 C 10.628906 19.351562 11.203125 19.351562 11.558594 18.992188 L 13.550781 17 L 16.371094 17 C 16.875 17 17.28125 16.59375 17.28125 16.089844 L 17.28125 13.269531 L 19.277344 11.273438 C 19.632812 10.917969 19.632812 10.34375 19.277344 9.988281 L 17.28125 7.996094 L 17.28125 5.175781 C 17.28125 4.671875 16.875 4.265625 16.371094 4.265625 L 13.550781 4.265625 L 11.558594 2.269531 C 11.378906 2.09375 11.148438 2.003906 10.914062 2.003906 Z M 10.914062 2.003906 "/>
<path style=" stroke:none;fill-rule:nonzero;fill:url(#linear2);" d="M 10.914062 4.265625 C 14.429688 4.265625 17.28125 7.117188 17.28125 10.632812 C 17.28125 14.148438 14.429688 17 10.914062 17 C 7.398438 17 4.546875 14.148438 4.546875 10.632812 C 4.546875 7.117188 7.398438 4.265625 10.914062 4.265625 Z M 10.914062 4.265625 "/>
<path style="fill-rule:nonzero;fill:url(#linear3);stroke-width:11.338583;stroke-linecap:round;stroke-linejoin:round;stroke:rgb(12.941177%,12.941177%,12.941177%);stroke-opacity:1;stroke-miterlimit:4;" d="M 959.908384 375.168202 C 649.67314 375.168202 399.904566 624.936775 399.904566 935.172019 C 399.904566 1245.407262 649.67314 1495.175836 959.908384 1495.175836 Z M 959.908384 375.168202 " transform="matrix(0.0113699,0,0,0.0113699,0,0)"/>
<path style=" stroke:none;fill-rule:nonzero;fill:rgb(100%,100%,100%);fill-opacity:0.392157;" d="M 10.914062 2.003906 C 10.683594 2.003906 10.449219 2.09375 10.273438 2.269531 L 8.277344 4.265625 L 5.457031 4.265625 C 4.953125 4.265625 4.546875 4.671875 4.546875 5.175781 L 4.546875 5.390625 C 4.546875 4.886719 4.953125 4.480469 5.457031 4.480469 L 8.277344 4.480469 L 10.273438 2.484375 C 10.449219 2.308594 10.683594 2.21875 10.914062 2.21875 C 11.148438 2.21875 11.378906 2.308594 11.558594 2.484375 L 13.550781 4.480469 L 16.371094 4.480469 C 16.875 4.480469 17.28125 4.886719 17.28125 5.390625 L 17.28125 5.175781 C 17.28125 4.671875 16.875 4.265625 16.371094 4.265625 L 13.550781 4.265625 L 11.558594 2.269531 C 11.378906 2.09375 11.148438 2.003906 10.914062 2.003906 Z M 4.546875 7.996094 L 2.554688 9.988281 C 2.347656 10.195312 2.261719 10.472656 2.292969 10.738281 C 2.316406 10.542969 2.402344 10.355469 2.554688 10.203125 L 4.546875 8.210938 Z M 17.28125 7.996094 L 17.28125 8.210938 L 19.277344 10.203125 C 19.425781 10.355469 19.515625 10.542969 19.535156 10.738281 C 19.570312 10.472656 19.480469 10.195312 19.277344 9.988281 Z M 17.28125 7.996094 "/>
<path style=" stroke:none;fill-rule:nonzero;fill:rgb(0%,0%,0%);fill-opacity:0.235294;" d="M 10.914062 19.261719 C 10.683594 19.261719 10.449219 19.171875 10.273438 18.992188 L 8.277344 17 L 5.457031 17 C 4.953125 17 4.546875 16.59375 4.546875 16.089844 L 4.546875 15.875 C 4.546875 16.378906 4.953125 16.785156 5.457031 16.785156 L 8.277344 16.785156 L 10.273438 18.777344 C 10.449219 18.957031 10.683594 19.046875 10.914062 19.046875 C 11.148438 19.046875 11.378906 18.957031 11.558594 18.777344 L 13.550781 16.785156 L 16.371094 16.785156 C 16.875 16.785156 17.28125 16.378906 17.28125 15.875 L 17.28125 16.089844 C 17.28125 16.59375 16.875 17 16.371094 17 L 13.550781 17 L 11.558594 18.992188 C 11.378906 19.171875 11.148438 19.261719 10.914062 19.261719 Z M 4.546875 13.269531 L 2.554688 11.273438 C 2.347656 11.070312 2.261719 10.792969 2.292969 10.523438 C 2.316406 10.71875 2.402344 10.910156 2.554688 11.0625 L 4.546875 13.054688 Z M 17.28125 13.269531 L 17.28125 13.054688 L 19.277344 11.0625 C 19.425781 10.910156 19.515625 10.71875 19.535156 10.523438 C 19.570312 10.792969 19.480469 11.070312 19.277344 11.273438 Z M 17.28125 13.269531 "/>
<path style=" stroke:none;fill-rule:nonzero;fill:rgb(12.941177%,12.941177%,12.941177%);fill-opacity:0.963235;" d="M 10.914062 1.9375 C 10.667969 1.9375 10.417969 2.035156 10.226562 2.226562 L 8.25 4.199219 L 5.457031 4.199219 C 4.917969 4.199219 4.484375 4.636719 4.484375 5.175781 L 4.484375 7.96875 L 2.507812 9.945312 C 2.128906 10.324219 2.128906 10.941406 2.507812 11.320312 L 4.484375 13.296875 L 4.484375 16.089844 C 4.484375 16.628906 4.917969 17.0625 5.457031 17.0625 L 8.25 17.0625 L 10.226562 19.039062 C 10.605469 19.417969 11.222656 19.417969 11.605469 19.039062 L 13.578125 17.0625 L 16.371094 17.0625 C 16.910156 17.0625 17.347656 16.628906 17.347656 16.089844 L 17.347656 13.296875 L 19.320312 11.320312 C 19.703125 10.941406 19.703125 10.324219 19.320312 9.945312 L 17.347656 7.96875 L 17.347656 5.175781 C 17.347656 4.636719 16.910156 4.199219 16.371094 4.199219 L 13.578125 4.199219 L 11.605469 2.226562 C 11.414062 2.035156 11.164062 1.9375 10.914062 1.9375 Z M 10.914062 2.066406 C 11.132812 2.066406 11.347656 2.152344 11.511719 2.316406 L 13.507812 4.3125 C 13.519531 4.324219 13.535156 4.328125 13.550781 4.328125 L 16.371094 4.328125 C 16.84375 4.328125 17.21875 4.707031 17.21875 5.175781 L 17.21875 7.996094 C 17.21875 8.011719 17.222656 8.027344 17.238281 8.039062 L 19.230469 10.035156 C 19.5625 10.367188 19.5625 10.898438 19.230469 11.230469 L 17.238281 13.222656 C 17.222656 13.234375 17.21875 13.253906 17.21875 13.269531 L 17.21875 16.089844 C 17.21875 16.558594 16.84375 16.933594 16.371094 16.933594 L 13.550781 16.933594 C 13.535156 16.933594 13.519531 16.941406 13.507812 16.953125 L 11.511719 18.949219 C 11.179688 19.28125 10.648438 19.28125 10.316406 18.949219 L 8.324219 16.953125 C 8.3125 16.941406 8.292969 16.933594 8.277344 16.933594 L 5.457031 16.933594 C 4.988281 16.933594 4.613281 16.558594 4.613281 16.089844 L 4.613281 13.269531 C 4.613281 13.253906 4.605469 13.234375 4.59375 13.222656 L 2.597656 11.230469 C 2.265625 10.898438 2.265625 10.367188 2.597656 10.035156 L 4.59375 8.039062 C 4.605469 8.027344 4.613281 8.011719 4.613281 7.996094 L 4.613281 5.175781 C 4.613281 4.707031 4.988281 4.328125 5.457031 4.328125 L 8.277344 4.328125 C 8.292969 4.328125 8.3125 4.324219 8.324219 4.3125 L 10.316406 2.316406 C 10.484375 2.152344 10.699219 2.066406 10.914062 2.066406 Z M 10.914062 2.066406 "/>
<path style=" stroke:none;fill-rule:nonzero;fill:rgb(100%,100%,100%);fill-opacity:0.392157;" d="M 10.914062 4.265625 C 7.386719 4.265625 4.546875 7.105469 4.546875 10.632812 C 4.546875 10.671875 4.546875 10.707031 4.550781 10.746094 C 4.609375 7.269531 7.425781 4.492188 10.914062 4.492188 C 14.40625 4.492188 17.222656 7.269531 17.28125 10.746094 C 17.28125 10.707031 17.28125 10.671875 17.28125 10.632812 C 17.28125 7.105469 14.441406 4.265625 10.914062 4.265625 Z M 10.914062 4.265625 "/>
<path style=" stroke:none;fill-rule:nonzero;fill:rgb(0%,0%,0%);fill-opacity:0.235294;" d="M 10.914062 17.226562 C 7.386719 17.226562 4.546875 14.386719 4.546875 10.859375 C 4.546875 10.820312 4.546875 10.785156 4.550781 10.746094 C 4.609375 14.21875 7.425781 17 10.914062 17 C 14.40625 17 17.222656 14.21875 17.28125 10.746094 C 17.28125 10.785156 17.28125 10.820312 17.28125 10.859375 C 17.28125 14.386719 14.441406 17.226562 10.914062 17.226562 Z M 10.914062 17.226562 "/>
<path style="fill:none;stroke-width:2.546624;stroke-linecap:round;stroke-linejoin:round;stroke:rgb(12.941177%,12.941177%,12.941177%);stroke-opacity:1;stroke-miterlimit:4;" d="M 253.975747 -115.736752 C 335.786116 -115.736752 402.143415 -49.379452 402.143415 32.430917 C 402.143415 114.241286 335.786116 180.598586 253.975747 180.598586 C 172.165377 180.598586 105.808078 114.241286 105.808078 32.430917 C 105.808078 -49.379452 172.165377 -115.736752 253.975747 -115.736752 Z M 253.975747 -115.736752 " transform="matrix(0.0429729,0,0,0.0429729,0,9.239163)"/>
</g>
</svg>
